X:2256
T:Walts
T:"dett är den första vallsen här kom till Sverige"
T:nr 9 ur FMK M 107
R:Vals
S:efter Per Henriksson, 
O:Sövestad, Skåne
B:FMK M107
Z:ABC-transkribering av Åke Persson
M:3/8
L:1/16
K:G
|: g2fedc | B2GBdc | A2FAc2 | B2GBd2 | g2fedc | B2GBdc | A2FAcA | G4 :|
|: D2FAc2 | B2GBdc | D2FAc2 | B2GBd2 | g2fedc | B2GBdc | A2FAcA | G4 :|  
(:musicend:)

(:music:)
